X: 35833
T: Saltón Del Medio
R: reel
M: 4/4
K: Dmajor
A|:dfef dBGB|AFEG FDD{E}D|dfef dBGB|ABde effe|
faef dBGB|AFEG FDD{E}D|GABd AF z F|1 {F}EDEF ~D3A:|2 {F}EDEF ~D3d||
|:gfed fdd{e}d|cdef edd{e}d|gfed fdAd|cdeg ~f3d|
gfed fdBG|ABdf e~d3|gfed fdAd|1 fedc ~d3d:|2 fedc d4||

